X:1
T:I Think When I Read That Sweet Story
T:I Think When I Read That Sweet Story
T:William Batchelder Bradbury, 1859
T:Jemima Thompson Luke, 1841
T:Public Domain Courtesy of the Cyber Hymnal™
C:William Batchelder Bradbury, 1859
Z:Public Domain
Z:Courtesy of the Cyber Hymnal™
%%score ( 1 2 ) ( 3 4 )
L:1/8
Q:1/4=110
M:4/4
K:Eb
V:1 treble 
V:2 treble 
V:3 bass 
V:4 bass 
V:1
 (EF) | [EG]2 [EG][EG] (GF)[EG][FA] | [Ac]2 [GB][GB] [GB]2 ([FA][EG]) | %3
w: 1.~I *|think, when I read * that sweet|stor- y of old, When *|
w: 2.~I *|wish that His hands * had been|placed on my head, That~His *|
w: 3.~Yet *|still to His foot * stool in|prayer I may go; And *|
w: 4.~But *|thous- ands and thou- * ands who|wan- der and fall, Ne- *|
w: 5.~In *|that beau- ti- ful * place He|has gone to pre- pare *|
w: 6.~I *|long for the joy * of that|glor- i- ous time, The *|
 [DF]2 [B,D][CE] [DF][Fd] ([Ec][E=A]) | [DB]6 [EG][FA] | (Be)[Ad][Ac] [GB]2 [EG][FA] | %6
w: Je- sus was here a- mong *|men, How He|called * lit- tle chil- dren as|
w: arms had been thrown a- round *|me, And that|I * might have seen His kind|
w: ask for a share in His *|love; A- nd|if * I thus ear- nest- ly|
w: ver heard of that hea- ven- *|ly home; I|wish * they could know there is|
w: For all who are washed and *|for- given; And|m- * any dear child- ren shall|
w: sweet- est and bright- est and *|best, When the|dear * lit- tle child- ren of|
 (Be)[Ad][Ac] [GB]2 [GB][GB] | [Ac]2 [EB][EG] (BA)[DG][DF] | E6 |] %9
w: lambs * to His fold, I should|like to have been * with them|then.|
w: look * when He said, “Let the|lit- tle ones come * un- to|Me.”|
w: seek * Him be- low, I shall|see Him and hear * Him a-|bove.|
w: room * for them all, And that|Je- sus has bid * them to|come.|
w: be * with Him there, For “of|such is the king- * dom of|heaven.”|
w: ev- * e- ry clime Sha- ll|crowd to His arms * and be|blest.|
V:2
 x2 | x4 E2 x2 | x8 | x8 | x8 | G2 x6 | G2 x6 | x4 C2 x2 | E6 |] %9
V:3
 (G,A,) | [E,B,]2 [E,B,][E,B,] (B,A,)[E,B,][E,B,] | [E,E]2 [E,E][E,E] [E,E]2 ([D,B,][E,B,]) | %3
 [B,,B,]2 [B,,F,][B,,F,] [B,,B,][B,,B,] ([F,=A,][F,C]) | [B,,B,]6 [E,B,][E,B,] | %5
 [E,B,]2 [E,C][E,D] [E,E]2 [E,B,][E,B,] | [E,B,]2 [E,C][E,D] [E,E]2 [E,E][E,E] | %7
 [A,E]2 [G,E][E,B,] [F,A,]2 [B,,B,][B,,A,] | [E,G,]6 |] %9
V:4
 E,2 | x4 E,2 x2 | x8 | x8 | x8 | x8 | x8 | x8 | x6 |] %9

